dist/img/icons/search.svg

<svg width="21" height="21" viewBox="0 0 21 21" fill="none" xmlns="http://www.w3.org/2000/svg">
<path d="M9.93946 0.931396C4.98074 0.931396 0.941406 4.97072 0.941406 9.92946C0.941406 14.8882 4.98074 18.9354 9.93946 18.9354C12.0575 18.9354 14.0054 18.1931 15.5449 16.9607L19.293 20.7068C19.4821 20.8881 19.7348 20.9881 19.9967 20.9855C20.2587 20.9828 20.5093 20.8776 20.6947 20.6925C20.8801 20.5073 20.9856 20.257 20.9886 19.995C20.9917 19.733 20.892 19.4802 20.7109 19.2908L16.9629 15.5428C18.1963 14.0009 18.9395 12.0499 18.9395 9.92946C18.9395 4.97072 14.8982 0.931396 9.93946 0.931396ZM9.93946 2.93143C13.8173 2.93143 16.9375 6.05163 16.9375 9.92946C16.9375 13.8073 13.8173 16.9353 9.93946 16.9353C6.06162 16.9353 2.94141 13.8073 2.94141 9.92946C2.94141 6.05163 6.06162 2.93143 9.93946 2.93143Z" fill="#EA5D0E"/>
</svg>

<svg width="21" height="21" fill="none" xmlns="http://www.w3.org/2000/svg"><path d="M9.94.931c-4.96 0-9 4.04-9 8.999 0 4.96 4.04 9.006 8.998 9.006a8.943 8.943 0 005.606-1.974l3.748 3.746a1.003 1.003 0 001.418-1.416l-3.748-3.748a8.96 8.96 0 001.976-5.614c0-4.958-4.04-8.998-9-8.998zm0 2a6.982 6.982 0 016.998 6.998 6.988 6.988 0 01-6.999 7.006A6.988 6.988 0 012.941 9.93 6.982 6.982 0 019.94 2.931z" fill="#EA5D0E"/></svg>
